packages/icons/src/assets/pinterest.svg

<svg width="16" height="16" viewBox="0 0 16 16" fill="none" xmlns="http://www.w3.org/2000/svg">
<path d="M6.44632 0.716952C7.33559 0.46429 8.2679 0.431782 9.17093 0.622225C10.0739 0.812704 10.9234 1.22076 11.6533 1.81461C12.3833 2.40855 12.9742 3.17279 13.3809 4.04703C13.7875 4.92127 13.9998 5.88312 14 6.85758C14 8.48507 13.4631 9.97752 12.4844 11.0578C11.5708 12.0637 10.3285 12.6457 9.0762 12.6457C7.92741 12.6456 7.1349 12.2678 6.60745 11.8498L5.91018 14.9972C5.87889 15.139 5.80226 15.2669 5.69339 15.3586C5.58452 15.4499 5.44878 15.5001 5.30862 15.5002C5.26079 15.5001 5.2126 15.494 5.16604 15.4826C5.08648 15.4631 5.01138 15.427 4.94534 15.3771C4.87939 15.3272 4.82288 15.2648 4.7803 15.1925C4.73773 15.1201 4.70942 15.039 4.69632 14.9552C4.68326 14.8714 4.68589 14.7851 4.70413 14.7023L6.85745 4.99723C6.89443 4.83063 6.99265 4.68441 7.13186 4.59293C7.27102 4.50167 7.43941 4.47221 7.59964 4.51187C7.76017 4.55187 7.89892 4.6585 7.9844 4.80484C8.06944 4.95077 8.09627 5.12587 8.0596 5.29215L6.93069 10.381C7.15015 10.6906 7.75651 11.3448 9.0762 11.3449C10.8778 11.3449 12.7655 9.67981 12.7657 6.85758C12.7653 6.0812 12.5963 5.31517 12.2725 4.6193C11.9487 3.92335 11.4784 3.31569 10.8985 2.8439C10.3186 2.37223 9.64377 2.04861 8.92776 1.89762C8.2119 1.74676 7.47267 1.77248 6.76761 1.97281C6.06238 2.17325 5.40997 2.54378 4.86038 3.05484C4.31082 3.56589 3.8779 4.20417 3.59768 4.92105C3.31758 5.638 3.19752 6.41492 3.24514 7.18961C3.29284 7.96414 3.50674 8.71684 3.8721 9.38883L3.87307 9.39078L3.91995 9.50504C3.95517 9.62398 3.95703 9.75268 3.92483 9.87418C3.88178 10.0359 3.78076 10.1754 3.64163 10.2609C3.50198 10.3464 3.33484 10.3715 3.17776 10.3293C3.02086 10.287 2.88711 10.1813 2.80374 10.0373L2.80276 10.0353C2.34336 9.19088 2.07268 8.24596 2.01272 7.27359C1.95279 6.30111 2.10524 5.32652 2.45706 4.42594C2.8089 3.52549 3.3514 2.72148 4.043 2.07828C4.73456 1.43529 5.5572 0.96963 6.44632 0.716952Z" fill="#0A0A0A"/>
</svg>

<svg xmlns="http://www.w3.org/2000/svg" width="16" height="16" viewBox="0 0 16 16"><path d="M6.446.717A5.7 5.7 0 0 1 9.171.622a5.84 5.84 0 0 1 2.482 1.193 6.3 6.3 0 0 1 1.728 2.232A6.7 6.7 0 0 1 14 6.857c0 1.628-.537 3.12-1.516 4.2-.913 1.007-2.155 1.589-3.408 1.589-1.149 0-1.941-.378-2.469-.796l-.697 3.147a.66.66 0 0 1-.217.362.6.6 0 0 1-.913-.166.68.68 0 0 1-.076-.49l2.153-9.706a.65.65 0 0 1 .275-.404.6.6 0 0 1 .468-.081c.16.04.299.147.384.293a.68.68 0 0 1 .076.487l-1.13 5.089c.22.31.827.964 2.146.964 1.802 0 3.69-1.665 3.69-4.487 0-.777-.17-1.543-.493-2.239a5 5 0 0 0-1.374-1.775 4.64 4.64 0 0 0-1.971-.946 4.5 4.5 0 0 0-2.16.075c-.706.2-1.358.57-1.908 1.082A5.1 5.1 0 0 0 3.598 4.92a5.34 5.34 0 0 0 .274 4.468l.001.002.047.114a.7.7 0 0 1 .005.37.65.65 0 0 1-.283.386.6.6 0 0 1-.464.068.62.62 0 0 1-.374-.292l-.001-.002a6.7 6.7 0 0 1-.346-5.61c.352-.9.894-1.704 1.586-2.347A5.9 5.9 0 0 1 6.446.717"/></svg>
